X: 4408
M: 2/4
L: 1/16
K: G
|:\
|:\
ddd2 DDD2 | E2D2 DED2 | B2A2 ABA2 | A2G2 GAG2 |\
ddd2 DDD2 | E2D2 DED2 | B2A2 ABA2 | G2B2G2 z2 :|


